X:1
T:Je suis aussi
T:Je suis aussi
T:Ballade 20
T:Guillaume de Machaut
C:Guillaume de Machaut
%%score 1 2 3
L:1/8
Q:1/4=100
M:4/4
K:G
V:1 treble-8 nm="Chant"
V:2 treble-8 nm="Guitar 1" snm="1"
V:3 treble-8 nm="Guitar 2" snm="2"
V:1
"^T" e3 =f fe dc | B2 AB c B2 A | B8 | f3 e ag f g | gf g e ed e^c | ^d6 ^c d | e4 z4 | B4 z2 cB | %8
w: Je * sui * * *|* * * aus * *|si|com * cilz * * qui|est * * ra- vis, * * *|qui n'a ver-|tu,|sens * *|
w: car * je * * *|* * * ne * *|sui|a * nul * * le|riens * * pen- sis, * * *|jour ne de-|mi,|temps, * *|
 cd ed A^G AF | ^G4 z2 G2 | A4 z2 ef | g f2 e fe dc |1 B8 :|2 B4 z2 cB || AB c B2 A2 G | A8 || %16
w: |ne en-|ten- * *|* * * de- * * *|ment,||||
w: |heu- re|ne * *|||* mo- *|ment, * * * * *||
[M:2/4] ^d4 | z2 e2 | de de | f2 f2- | f g2 f | e2 ^d2 | e4 | ag fe | d2 c2 | B2 z e | ed e c | %27
w: fors|||seu- le-|* ment a|m'a- mour||et * * *|sans par-|tir en|ce * pen- *|
w: |||||||||||
 cB cA | ^G4 | A2 G A | c3 c | d2 e2 | g f2 e | fe dc | B4 | ^g4 | z2 a2 | ga ga | b2 gf | f e2 d | %40
w: ser * * de-|mour|Soit con- tre|moy, soit|pour moy,|tout * *|ou- * * *|bli|fors|||li qu'aim *|mieux * *|
w: |||||||||||||
 e2 z a | ae ed | fe dc | B4 | z2 cB | AB cB- | B A2 ^G |[M:4/4] A8 |] %48
w: * cent|mil- * le *|fois * * *|que||||mi.|
w: ||||||||
V:2
 A8 | ^G4 A2 GF | E8 | D6 E2 | G4 A4 | B8 | E8 | ^G8 | A e2 d fe dc | B8 | A8 | G4 A^G AE |1 %12
 ^G8 :|2 ^G8 || A e2 d c2 B2 | A8 ||[M:2/4] B4 | c4- | c4 | B2 A2 | G3 A | G2 F2 | E4 | D3 E | %24
 G2 A2 | z B A2 | A4 | ed ec | B4 | e4 | A4 | cB cA | B4 | B2 A2 | ^G4 | B4 | c4- | c4 | B2 c2 | %39
 B4 | z A A2 | A4 | A^G AE | ^G4- | G4 | A e2 d | c2 B2 |[M:4/4] A8 |] %48
V:3
 Ac cA D2 =F2 | E4 =FD E^F | G3 A GA FG | B2 A2 Ad Bc | d4 c4 | B4 z ^G z B | B^G z A BE Bc | %7
 E2 z2 BE E2 | A^G AB AB A2 | E4 ^GF z A | D2 AB ^c2 z2 | d4 D4 |1 E8 :|2 E4 E2 z2 || %14
 =F2 E2 z F z G | D8 ||[M:2/4] B2 ^G2 | A2 z2 | BA cA | d2 ^c2 | d2 c z | c B2 ^A | B4 | d2 c2 | %24
 B2 G2 | G2 z G | z B z A | E4 | E B2 E | A2 BA | A2 z G | z B GA | B4 | BE F2 | E4 | E4 | A2 z2 | %37
 BA BA | G3 A | z B BG | A2 A z | z A z D | A2 Bc | B E2 B | BE E2 | A^G AB | A2 B2 |[M:4/4] A8 |] %48

